icon-themes/breeze_svg/cmd/32/ellipse_unfilled.svg

<svg viewBox="0 0 32 32" xmlns="http://www.w3.org/2000/svg"><path d="m16 7a12 9 0 0 0 -12 9 12 9 0 0 0 12 9 12 9 0 0 0 12-9 12 9 0 0 0 -12-9zm0 1a11 8 0 0 1 11 8 11 8 0 0 1 -11 8 11 8 0 0 1 -11-8 11 8 0 0 1 11-8z" fill="#4d4d4d"/></svg>

<svg xmlns="http://www.w3.org/2000/svg" viewBox="0 0 32 32">
 <path 
     style="fill:#4d4d4d" 
     d="M 16 7 A 12 9 0 0 0 4 16 A 12 9 0 0 0 16 25 A 12 9 0 0 0 28 16 A 12 9 0 0 0 16 7 z M 16 8 A 11 8 0 0 1 27 16 A 11 8 0 0 1 16 24 A 11 8 0 0 1 5 16 A 11 8 0 0 1 16 8 z "
     />
</svg>
